X: 3
T: Jacks On The Mountain, The
M: 6/8
L: 1/8
R: jig
K: Gmaj
|: d |\
ged B2 A | GED G2 D | EAA A^GA | Bee e2 d |
ged BB/A/G | E^DE G2 =D | EAA EGG | dBA G2 :|
|: D |\
GB/c/d fga | ged B2 e | dBA A^GA | BE^D =D2 E |
[1 GBd f2 a | ged e2 e | dBA A^GA | dBG G2 :|
[2 DGG F/G/AB | dB/c/d g2 e | dBA Adc | B/c/dF G2 |]
